X:1
T:Barney and Katie
M:4/4
L:1/4
K:C
C/2-D/2| E2 D C| G E2 G| c d2 c| B A2 A| c2 G E| A G2 G| G2 F G| E3C/2-D/2|\
 E2 D C| F E2 G| c d2 c| B A2A/2-B/2| c2 G E| A G2E/2-G/2| G2F/2-D/2 D|\
 C3||
